svg/u1f47c_1f3fe.svg

<svg viewBox="0 0 128 128" xmlns="http://www.w3.org/2000/svg">
  <g id="wing_x5F_left">
    <path d="M52.73,103.81c-2.84-4.71-6.45-12.77-8.44-15.57c-3.24-4.55-8.81-5.91-13.56-2.94 c-8.61,5.38-14.63,6.99-20.63,7.49c-1.91,0.16-4.13,0.32-5.23,1.89c-0.97,1.38-0.58,3.38,0.48,4.7c3.02,3.74,9.56,4.43,13.19,4.77 c-1.12,0.62-2.96,1.84-2.4,3.36c1.21,3.29,10.22,4.23,14.48,4.35c-0.65,0.34-2.72,2.15-2.05,3.31c1.51,2.64,9.93,3.51,14.1,2.83 c0,0-2.53,2.35-0.95,3.81c2.85,2.63,10.78,2.84,14.86,1.58c4.11-1.28,5.18-3.22,5.62-5.31C62.82,115.07,56.77,110.51,52.73,103.81 L52.73,103.81z" fill="#F5F5F5"/>
    <path d="M32.52,101.38c-1.23,1-5.93,2.93-7.34,3.39c-2.65,0.87-5.96,1.41-8.93,1.37 c0.45-0.88,1.53-1.57,2.29-1.99C24.64,103.78,31.57,101.64,32.52,101.38z" fill="#BDBDBD"/>
    <path d="M41.39,108.48c-1.1,0.78-4.15,3.02-6.1,3.75c-2.91,1.09-5.07,1.4-6.54,1.47 c0.5-0.84,1.45-1.62,1.86-1.83c1.71-0.15,3.47-0.55,5.13-1.18C37.57,110,39.58,109.25,41.39,108.48z" fill="#BDBDBD"/>
    <path d="M49.52,116.08c-0.95,0.73-3,2.08-4.49,2.6c-0.87,0.3-2.19,0.7-3.59,1c0.42-0.93,1.23-1.68,1.23-1.68 C45.29,117.49,47.18,116.84,49.52,116.08z" fill="#BDBDBD"/>
    <linearGradient id="SVGID_1_" gradientTransform="matrix(1 0 0 -1 0 128)" gradientUnits="userSpaceOnUse" x1="30.8282" x2="52.7817" y1="17.985" y2="41.985">
      <stop offset="0" stop-color="#E0E0E0"/>
      <stop offset="0.3658" stop-color="#F5F5F5" stop-opacity="0"/>
    </linearGradient>
    <path d="M52.73,103.81c-2.84-4.71-6.45-12.77-8.44-15.57c-3.24-4.55-8.81-5.91-13.56-2.94 c-8.61,5.38-14.63,6.99-20.63,7.49c-1.91,0.16-4.13,0.32-5.23,1.89c-0.97,1.38-0.58,3.38,0.48,4.7c3.02,3.74,9.56,4.43,13.19,4.77 c-1.12,0.62-2.96,1.84-2.4,3.36c1.21,3.29,10.22,4.23,14.48,4.35c-0.65,0.34-2.72,2.15-2.05,3.31c1.51,2.64,9.93,3.51,14.1,2.83 c0,0-2.53,2.35-0.95,3.81c2.85,2.63,10.78,2.84,14.86,1.58c4.11-1.28,5.18-3.22,5.62-5.31C62.82,115.07,56.77,110.51,52.73,103.81 L52.73,103.81z" fill="url(#SVGID_1_)"/>
  </g>
  <g id="wing_x5F_left_1_">
    <path d="M75.05,103.81c2.84-4.71,6.45-12.77,8.44-15.57c3.24-4.55,8.81-5.91,13.56-2.94 c8.61,5.38,14.63,6.99,20.63,7.49c1.91,0.16,4.13,0.32,5.23,1.89c0.97,1.38,0.58,3.38-0.48,4.7c-3.02,3.74-9.56,4.43-13.19,4.77 c1.12,0.62,2.96,1.84,2.4,3.36c-1.21,3.29-10.22,4.23-14.48,4.35c0.65,0.34,2.72,2.15,2.05,3.31c-1.51,2.64-9.93,3.51-14.1,2.83 c0,0,2.53,2.35,0.95,3.81c-2.85,2.63-10.78,2.84-14.86,1.58c-4.11-1.28-5.18-3.22-5.62-5.31 C64.96,115.07,71.01,110.51,75.05,103.81L75.05,103.81z" fill="#F5F5F5"/>
    <path d="M95.26,101.38c1.23,1,5.93,2.93,7.34,3.39c2.65,0.87,5.96,1.41,8.93,1.37 c-0.45-0.88-1.53-1.57-2.29-1.99C103.14,103.78,96.21,101.64,95.26,101.38z" fill="#BDBDBD"/>
    <path d="M86.39,108.48c1.1,0.78,4.15,3.02,6.1,3.75c2.91,1.09,5.07,1.4,6.54,1.47 c-0.5-0.84-1.45-1.62-1.86-1.83c-1.71-0.15-3.47-0.55-5.13-1.18C90.21,110,88.2,109.25,86.39,108.48z" fill="#BDBDBD"/>
    <path d="M78.26,116.08c0.95,0.73,3,2.08,4.49,2.6c0.87,0.3,2.19,0.7,3.59,1c-0.42-0.93-1.23-1.68-1.23-1.68 C82.49,117.49,80.6,116.84,78.26,116.08z" fill="#BDBDBD"/>
    <linearGradient id="SVGID_2_" gradientTransform="matrix(-1 0 0 -1 127.78 128)" gradientUnits="userSpaceOnUse" x1="30.8282" x2="52.7817" y1="17.985" y2="41.985">
      <stop offset="0" stop-color="#E0E0E0"/>
      <stop offset="0.3658" stop-color="#F5F5F5" stop-opacity="0"/>
    </linearGradient>
    <path d="M75.05,103.81c2.84-4.71,6.45-12.77,8.44-15.57c3.24-4.55,8.81-5.91,13.56-2.94 c8.61,5.38,14.63,6.99,20.63,7.49c1.91,0.16,4.13,0.32,5.23,1.89c0.97,1.38,0.58,3.38-0.48,4.7c-3.02,3.74-9.56,4.43-13.19,4.77 c1.12,0.62,2.96,1.84,2.4,3.36c-1.21,3.29-10.22,4.23-14.48,4.35c0.65,0.34,2.72,2.15,2.05,3.31c-1.51,2.64-9.93,3.51-14.1,2.83 c0,0,2.53,2.35,0.95,3.81c-2.85,2.63-10.78,2.84-14.86,1.58c-4.11-1.28-5.18-3.22-5.62-5.31 C64.96,115.07,71.01,110.51,75.05,103.81L75.05,103.81z" fill="url(#SVGID_2_)"/>
  </g>
  <path id="ears" d="M98.23,71.94H29.99c-7.36,0-13.38,5.34-13.38,11.87c0,6.53,6.02,11.87,13.38,11.87h68.24 c7.36,0,13.38-5.34,13.38-11.87C111.61,77.28,105.59,71.94,98.23,71.94z" fill="#7A4C32"/>
  <path id="head" d="M63.85,19.94c-21.62,0-41.65,21.95-41.65,53.53c0,31.42,20.63,46.95,41.65,46.95 s41.65-15.53,41.65-46.95C105.5,41.89,85.47,19.94,63.85,19.94z" fill="#A56C43"/>
  <path id="nose" d="M68.54,88.17c-0.13-0.05-0.26-0.08-0.39-0.09h-8.51c-0.13,0.02-0.26,0.05-0.39,0.09 c-0.77,0.3-1.2,1.06-0.83,1.88c0.37,0.81,2.06,3.1,5.47,3.1c3.42,0,5.11-2.29,5.47-3.1C69.73,89.23,69.31,88.47,68.54,88.17z" fill="#875334"/>
  <g id="eyes">
    <ellipse cx="43.88" cy="82.22" fill="#42312C" rx="5.93" ry="5.87"/>
    <ellipse cx="83.9" cy="82.22" fill="#42312C" rx="5.93" ry="5.87"/>
  </g>
  <g id="eyebrows_1_">
    <path d="M92.5,71.83L92.5,71.83c0.01-0.01-2.73-4.16-9.07-4.17s-9.08,4.15-9.08,4.15l0.01,0.01 c-0.22,0.3-0.36,0.66-0.36,1.06c0,1,0.84,1.82,1.88,1.82c0.21,0,0.74-0.15,0.79-0.17c3.8-1.51,6.77-1.52,6.77-1.52 s2.95,0.01,6.75,1.53c0.05,0.02,0.57,0.17,0.79,0.17c1.04,0,1.88-0.81,1.88-1.82C92.86,72.5,92.73,72.13,92.5,71.83z" fill="#42312C"/>
    <path d="M53.41,71.83L53.41,71.83c0.01-0.01-2.73-4.16-9.07-4.17s-9.08,4.15-9.08,4.15l0.01,0.01 c-0.22,0.3-0.36,0.66-0.36,1.06c0,1,0.84,1.82,1.88,1.82c0.21,0,0.74-0.15,0.79-0.17c3.8-1.51,6.77-1.52,6.77-1.52 s2.95,0.01,6.75,1.53c0.05,0.02,0.58,0.17,0.79,0.17c1.04,0,1.88-0.81,1.88-1.82C53.77,72.49,53.64,72.13,53.41,71.83z" fill="#42312C"/>
  </g>
  <g id="hairGroup">
    <path id="hair" d="M64.24,15.41c-46.08,0-49.27,36.46-47.42,52.43c1.63,14.09,9.23,17.57,9.23,17.57 s-1.49-12.3,0.92-21.22c1.91-7.07,6.48-12.32,6.48-12.32s8.31,6.99,23.81,11.54C64.73,65.6,74.3,64.5,74.3,64.5l-5.37-9.19 c0,0,8.78,6.25,14.24,7.44c7,1.53,12.14,0.88,12.14,0.88l-2.57-9.7c0,0,4.45,2.83,7.79,10.56s1.27,20.92,1.27,20.92 s8.01-3.45,9.29-17.57C112.71,50.15,110.11,15.41,64.24,15.41L64.24,15.41z" fill="#3C2C23"/>
    <radialGradient id="hairHighlights_1_" cx="16.4103" cy="17.2464" gradientTransform="matrix(1.110000e-13 1.0795 -0.9718 1.000000e-13 80.5819 51.2612)" gradientUnits="userSpaceOnUse" r="49.1407">
      <stop offset="0.7945" stop-color="#554138" stop-opacity="0"/>
      <stop offset="1" stop-color="#554138"/>
    </radialGradient>
    <path id="hairHighlights" d="M64.24,15.41c-46.08,0-49.27,36.46-47.42,52.43 c1.63,14.09,9.23,17.57,9.23,17.57s-1.49-12.3,0.92-21.22c1.91-7.07,6.48-12.32,6.48-12.32s8.31,6.99,23.81,11.54 C64.73,65.6,74.3,64.5,74.3,64.5l-5.37-9.19c0,0,8.78,6.25,14.24,7.44c7,1.53,12.14,0.88,12.14,0.88l-2.57-9.7 c0,0,4.45,2.83,7.79,10.56s1.27,20.92,1.27,20.92s8.01-3.45,9.29-17.57C112.71,50.15,110.11,15.41,64.24,15.41L64.24,15.41z" fill="url(#hairHighlights_1_)"/>
  </g>
  <path id="aureola" d="M63.79,4c-24,0-43.46,7.23-43.46,16.15c0,8.93,19.46,16.15,43.46,16.15 s43.46-7.23,43.46-16.15S87.8,4,63.79,4z M63.79,10.8c13.59,0,24.61,2.93,24.61,6.54c0,3.62-11.02,6.55-24.61,6.55 c-13.6,0-24.63-2.93-24.63-6.55C39.16,13.73,50.19,10.8,63.79,10.8z" fill="#40BFE6"/>
  <path id="mouth" d="M75.01,97.97c-4.19,2.49-17.91,2.49-22.1,0c-2.4-1.43-4.86,0.76-3.86,2.94 c0.98,2.15,8.47,7.13,14.95,7.13c6.47,0,13.87-4.98,14.85-7.13C79.84,98.72,77.42,96.54,75.01,97.97z" fill="#473530"/>
</svg>

<svg viewBox="0 0 128 128" xmlns="http://www.w3.org/2000/svg">
  <defs>
    <linearGradient id="SVGID_1_" gradientTransform="matrix(1 0 0 -1 0 0)" gradientUnits="userSpaceOnUse" x1="30.8282" x2="52.7817" y1="-110.015" y2="-86.015">
      <stop offset="0" stop-color="#E0E0E0"/>
      <stop offset="0.3658" stop-color="#F5F5F5" stop-opacity="0"/>
    </linearGradient>
    <linearGradient id="SVGID_2_" gradientTransform="matrix(-1 0 0 -1 0 0)" gradientUnits="userSpaceOnUse" x1="-96.9518" x2="-74.9983" y1="-110.015" y2="-86.015">
      <stop offset="0" stop-color="#E0E0E0"/>
      <stop offset="0.3658" stop-color="#F5F5F5" stop-opacity="0"/>
    </linearGradient>
    <radialGradient id="hairHighlights_1_" cx="63.896358" cy="-65.673851" gradientTransform="matrix(0 1.0795 -0.9718 0 0 0)" gradientUnits="userSpaceOnUse" r="49.1407">
      <stop offset="0.7945" stop-color="#554138" stop-opacity="0"/>
      <stop offset="1" stop-color="#554138"/>
    </radialGradient>
  </defs>
  <path d="M52.73,103.81 C49.89,99.1 46.28,91.04 44.29,88.24 C41.05,83.69 35.48,82.33 30.73,85.3 C22.12,90.68 16.1,92.29 10.1,92.79 C8.19,92.95 5.97,93.11 4.87,94.68 C3.9,96.06 4.29,98.06 5.35,99.38 C8.37,103.12 14.91,103.81 18.54,104.15 C17.42,104.77 15.58,105.99 16.14,107.51 C17.35,110.8 26.36,111.74 30.62,111.86 C29.97,112.2 27.9,114.01 28.57,115.17 C30.08,117.81 38.5,118.68 42.67,118 C42.67,118 40.14,120.35 41.72,121.81 C44.57,124.44 52.5,124.65 56.58,123.39 C60.69,122.11 61.76,120.17 62.2,118.08 C62.82,115.07 56.77,110.51 52.73,103.81 L52.73,103.81 Z" fill="#F5F5F5"/>
  <path d="M32.52,101.38 C31.29,102.38 26.59,104.31 25.18,104.77 C22.53,105.64 19.22,106.18 16.25,106.14 C16.7,105.26 17.78,104.57 18.54,104.15 C24.64,103.78 31.57,101.64 32.52,101.38 Z" fill="#BDBDBD"/>
  <path d="M41.39,108.48 C40.29,109.26 37.24,111.5 35.29,112.23 C32.38,113.32 30.22,113.63 28.75,113.7 C29.25,112.86 30.2,112.08 30.61,111.87 C32.32,111.72 34.08,111.32 35.74,110.69 C37.57,110 39.58,109.25 41.39,108.48 Z" fill="#BDBDBD"/>
  <path d="M49.52,116.08 C48.57,116.81 46.52,118.16 45.03,118.68 C44.16,118.98 42.84,119.38 41.44,119.68 C41.86,118.75 42.67,118 42.67,118 C45.29,117.49 47.18,116.84 49.52,116.08 Z" fill="#BDBDBD"/>
  <path d="M52.73,103.81 C49.89,99.1 46.28,91.04 44.29,88.24 C41.05,83.69 35.48,82.33 30.73,85.3 C22.12,90.68 16.1,92.29 10.1,92.79 C8.19,92.95 5.97,93.11 4.87,94.68 C3.9,96.06 4.29,98.06 5.35,99.38 C8.37,103.12 14.91,103.81 18.54,104.15 C17.42,104.77 15.58,105.99 16.14,107.51 C17.35,110.8 26.36,111.74 30.62,111.86 C29.97,112.2 27.9,114.01 28.57,115.17 C30.08,117.81 38.5,118.68 42.67,118 C42.67,118 40.14,120.35 41.72,121.81 C44.57,124.44 52.5,124.65 56.58,123.39 C60.69,122.11 61.76,120.17 62.2,118.08 C62.82,115.07 56.77,110.51 52.73,103.81 L52.73,103.81 Z" fill="url(#SVGID_1_)"/>
  <path d="M75.05,103.81 C77.89,99.1 81.5,91.04 83.49,88.24 C86.73,83.69 92.3,82.33 97.05,85.3 C105.66,90.68 111.68,92.29 117.68,92.79 C119.59,92.95 121.81,93.11 122.91,94.68 C123.88,96.06 123.49,98.06 122.43,99.38 C119.41,103.12 112.87,103.81 109.24,104.15 C110.36,104.77 112.2,105.99 111.64,107.51 C110.43,110.8 101.42,111.74 97.16,111.86 C97.81,112.2 99.88,114.01 99.21,115.17 C97.7,117.81 89.28,118.68 85.11,118 C85.11,118 87.64,120.35 86.06,121.81 C83.21,124.44 75.28,124.65 71.2,123.39 C67.09,122.11 66.02,120.17 65.58,118.08 C64.96,115.07 71.01,110.51 75.05,103.81 L75.05,103.81 Z" fill="#F5F5F5"/>
  <path d="M95.26,101.38 C96.49,102.38 101.19,104.31 102.6,104.77 C105.25,105.64 108.56,106.18 111.53,106.14 C111.08,105.26 110,104.57 109.24,104.15 C103.14,103.78 96.21,101.64 95.26,101.38 Z" fill="#BDBDBD"/>
  <path d="M86.39,108.48 C87.49,109.26 90.54,111.5 92.49,112.23 C95.4,113.32 97.56,113.63 99.03,113.7 C98.53,112.86 97.58,112.08 97.17,111.87 C95.46,111.72 93.7,111.32 92.04,110.69 C90.21,110 88.2,109.25 86.39,108.48 Z" fill="#BDBDBD"/>
  <path d="M78.26,116.08 C79.21,116.81 81.26,118.16 82.75,118.68 C83.62,118.98 84.94,119.38 86.34,119.68 C85.92,118.75 85.11,118 85.11,118 C82.49,117.49 80.6,116.84 78.26,116.08 Z" fill="#BDBDBD"/>
  <path d="M75.05,103.81 C77.89,99.1 81.5,91.04 83.49,88.24 C86.73,83.69 92.3,82.33 97.05,85.3 C105.66,90.68 111.68,92.29 117.68,92.79 C119.59,92.95 121.81,93.11 122.91,94.68 C123.88,96.06 123.49,98.06 122.43,99.38 C119.41,103.12 112.87,103.81 109.24,104.15 C110.36,104.77 112.2,105.99 111.64,107.51 C110.43,110.8 101.42,111.74 97.16,111.86 C97.81,112.2 99.88,114.01 99.21,115.17 C97.7,117.81 89.28,118.68 85.11,118 C85.11,118 87.64,120.35 86.06,121.81 C83.21,124.44 75.28,124.65 71.2,123.39 C67.09,122.11 66.02,120.17 65.58,118.08 C64.96,115.07 71.01,110.51 75.05,103.81 L75.05,103.81 Z" fill="url(#SVGID_2_)"/>
  <path id="ears" d="M98.23,71.94 L29.99,71.94 C22.63,71.94 16.61,77.28 16.61,83.81 C16.61,90.34 22.63,95.68 29.99,95.68 L98.23,95.68 C105.59,95.68 111.61,90.34 111.61,83.81 C111.61,77.28 105.59,71.94 98.23,71.94 Z" fill="#7A4C32"/>
  <path id="head" d="M63.85,19.94 C42.23,19.94 22.2,41.89 22.2,73.47 C22.2,104.89 42.83,120.42 63.85,120.42 C84.87,120.42 105.5,104.89 105.5,73.47 C105.5,41.89 85.47,19.94 63.85,19.94 Z" fill="#A56C43"/>
  <path id="nose" d="M68.54,88.17 C68.41,88.12 68.28,88.09 68.15,88.08 L59.64,88.08 C59.51,88.1 59.38,88.13 59.25,88.17 C58.48,88.47 58.05,89.23 58.42,90.05 C58.79,90.86 60.48,93.15 63.89,93.15 C67.31,93.15 69,90.86 69.36,90.05 C69.73,89.23 69.31,88.47 68.54,88.17 Z" fill="#875334"/>
  <path d="M49.81,82.22 A5.93 5.87 0 1 1 37.95,82.22 A5.93 5.87 0 1 1 49.81,82.22 Z" fill="#42312C"/>
  <path d="M89.83,82.22 A5.93 5.87 0 1 1 77.97,82.22 A5.93 5.87 0 1 1 89.83,82.22 Z" fill="#42312C"/>
  <path d="M92.5,71.83 L92.5,71.83 C92.51,71.82 89.77,67.67 83.43,67.66 C77.09,67.65 74.35,71.81 74.35,71.81 L74.36,71.82 C74.14,72.12 74,72.48 74,72.88 C74,73.88 74.84,74.7 75.88,74.7 C76.09,74.7 76.62,74.55 76.67,74.53 C80.47,73.02 83.44,73.01 83.44,73.01 C83.44,73.01 86.39,73.02 90.19,74.54 C90.24,74.56 90.76,74.71 90.98,74.71 C92.02,74.71 92.86,73.9 92.86,72.89 C92.86,72.5 92.73,72.13 92.5,71.83 Z" fill="#42312C"/>
  <path d="M53.41,71.83 L53.41,71.83 C53.42,71.82 50.68,67.67 44.34,67.66 C38,67.65 35.26,71.81 35.26,71.81 L35.27,71.82 C35.05,72.12 34.91,72.48 34.91,72.88 C34.91,73.88 35.75,74.7 36.79,74.7 C37,74.7 37.53,74.55 37.58,74.53 C41.38,73.02 44.35,73.01 44.35,73.01 C44.35,73.01 47.3,73.02 51.1,74.54 C51.15,74.56 51.68,74.71 51.89,74.71 C52.93,74.71 53.77,73.9 53.77,72.89 C53.77,72.49 53.64,72.13 53.41,71.83 Z" fill="#42312C"/>
  <path id="hair" d="M64.24,15.41 C18.16,15.41 14.97,51.87 16.82,67.84 C18.45,81.93 26.05,85.41 26.05,85.41 C26.05,85.41 24.56,73.11 26.97,64.19 C28.88,57.12 33.45,51.87 33.45,51.87 C33.45,51.87 41.76,58.86 57.26,63.41 C64.73,65.6 74.3,64.5 74.3,64.5 L68.93,55.31 C68.93,55.31 77.71,61.56 83.17,62.75 C90.17,64.28 95.31,63.63 95.31,63.63 L92.74,53.93 C92.74,53.93 97.19,56.76 100.53,64.49 C103.87,72.22 101.8,85.41 101.8,85.41 C101.8,85.41 109.81,81.96 111.09,67.84 C112.71,50.15 110.11,15.41 64.24,15.41 L64.24,15.41 Z" fill="#3C2C23"/>
  <path id="hairHighlights" d="M64.24,15.41 C18.16,15.41 14.97,51.87 16.82,67.84 C18.45,81.93 26.05,85.41 26.05,85.41 C26.05,85.41 24.56,73.11 26.97,64.19 C28.88,57.12 33.45,51.87 33.45,51.87 C33.45,51.87 41.76,58.86 57.26,63.41 C64.73,65.6 74.3,64.5 74.3,64.5 L68.93,55.31 C68.93,55.31 77.71,61.56 83.17,62.75 C90.17,64.28 95.31,63.63 95.31,63.63 L92.74,53.93 C92.74,53.93 97.19,56.76 100.53,64.49 C103.87,72.22 101.8,85.41 101.8,85.41 C101.8,85.41 109.81,81.96 111.09,67.84 C112.71,50.15 110.11,15.41 64.24,15.41 L64.24,15.41 Z" fill="url(#hairHighlights_1_)"/>
  <path id="aureola" d="M63.79,4 C39.79,4 20.33,11.23 20.33,20.15 C20.33,29.08 39.79,36.3 63.79,36.3 C87.79,36.3 107.25,29.07 107.25,20.15 C107.25,11.23 87.8,4 63.79,4 Z M63.79,10.8 C77.38,10.8 88.4,13.73 88.4,17.34 C88.4,20.96 77.38,23.89 63.79,23.89 C50.19,23.89 39.16,20.96 39.16,17.34 C39.16,13.73 50.19,10.8 63.79,10.8 Z" fill="#40BFE6"/>
  <path id="mouth" d="M75.01,97.97 C70.82,100.46 57.1,100.46 52.91,97.97 C50.51,96.54 48.05,98.73 49.05,100.91 C50.03,103.06 57.52,108.04 64,108.04 C70.47,108.04 77.87,103.06 78.85,100.91 C79.84,98.72 77.42,96.54 75.01,97.97 Z" fill="#473530"/>
</svg>
